temp/img/splash/mobile-menu.svg

<svg width="24" height="15" viewBox="0 0 24 15" fill="none" xmlns="http://www.w3.org/2000/svg">
<path d="M0 1C0 0.447715 0.447715 0 1 0H23C23.5523 0 24 0.447715 24 1V1.51953C24 2.07182 23.5523 2.51953 23 2.51953H1C0.447716 2.51953 0 2.07182 0 1.51953V1ZM1 8.73047C0.447716 8.73047 0 8.28275 0 7.73047V7.26953C0 6.71725 0.447715 6.26953 1 6.26953H23C23.5523 6.26953 24 6.71725 24 7.26953V7.73047C24 8.28275 23.5523 8.73047 23 8.73047H1ZM1 15C0.447716 15 0 14.5523 0 14V13.4805C0 12.9282 0.447715 12.4805 1 12.4805H23C23.5523 12.4805 24 12.9282 24 13.4805V14C24 14.5523 23.5523 15 23 15H1Z" fill="white"/>
</svg>

<svg width="24" height="15" viewBox="0 0 24 15" fill="none" xmlns="http://www.w3.org/2000/svg"><path d="M0 1a1 1 0 0 1 1-1h22a1 1 0 0 1 1 1v.52a1 1 0 0 1-1 1H1a1 1 0 0 1-1-1V1zm1 7.73a1 1 0 0 1-1-1v-.46a1 1 0 0 1 1-1h22a1 1 0 0 1 1 1v.46a1 1 0 0 1-1 1H1zM1 15a1 1 0 0 1-1-1v-.52a1 1 0 0 1 1-1h22a1 1 0 0 1 1 1V14a1 1 0 0 1-1 1H1z" fill="#fff"/></svg>
